images/star.svg

<svg xmlns="http://www.w3.org/2000/svg" width="17" height="17" viewBox="0 0 17 17" fill="none">
  <path d="M16.7377 7.09206C16.7168 7.28102 16.6227 7.45427 16.4756 7.57466L12.8239 11.1355L13.6888 16.165C13.6968 16.2318 13.7003 16.2992 13.6992 16.3665C13.7031 16.4937 13.6659 16.6188 13.5933 16.7233C13.5583 16.7713 13.5118 16.8098 13.458 16.8353C13.4043 16.8607 13.3451 16.8723 13.2857 16.869C13.1434 16.8646 13.0047 16.8228 12.8836 16.7479L8.36887 14.3746L3.85229 16.7488C3.73045 16.8221 3.59219 16.8638 3.45012 16.8699C3.38932 16.874 3.32847 16.8628 3.2731 16.8374C3.21773 16.8119 3.16961 16.773 3.13312 16.7242C3.06057 16.6197 3.02343 16.4946 3.02714 16.3675C3.02961 16.2999 3.03625 16.2326 3.04701 16.1659L3.91191 11.1364L0.251709 7.5756C0.111387 7.45071 0.0218137 7.27864 0 7.09206C0 6.84413 0.189255 6.68989 0.567766 6.62933L5.61804 5.89502L7.87586 1.31883C8.00329 1.04378 8.16763 0.90625 8.36887 0.90625C8.57011 0.90625 8.73444 1.04378 8.86188 1.31883L11.1254 5.89596L16.1756 6.63027C16.5542 6.69336 16.7434 6.8476 16.7434 7.093L16.7377 7.09206Z" fill="#111111"/>
</svg>

<svg xmlns="http://www.w3.org/2000/svg" width="17" height="17" fill="none"><path d="M16.738 7.092a.727.727 0 01-.262.483l-3.652 3.56.865 5.03c.008.067.011.134.01.201a.594.594 0 01-.106.357.356.356 0 01-.307.146.812.812 0 01-.402-.121l-4.515-2.373-4.517 2.374a.851.851 0 01-.402.12.366.366 0 01-.317-.145.595.595 0 01-.106-.357c.003-.067.01-.134.02-.201l.865-5.03-3.66-3.56A.766.766 0 010 7.092c0-.248.19-.402.568-.463l5.05-.734 2.258-4.576c.127-.275.292-.413.493-.413s.365.138.493.413l2.263 4.577 5.05.734c.38.063.568.218.568.463h-.005z" fill="#111"/></svg>
